Sources/FrostedUI/Resources/Icons.xcassets/compress32.imageset/compress-32.svg

<svg width="32" height="32" viewBox="0 0 32 32" fill="none" xmlns="http://www.w3.org/2000/svg" data-fui-icon="true">
  <path
    d="M16 18.583C16.1986 18.5831 16.3897 18.6624 16.5303 18.8027L21.1973 23.4697C21.4899 23.7626 21.4899 24.2374 21.1973 24.5303C20.9044 24.8231 20.4296 24.823 20.1367 24.5303L16.75 21.1436V29.5C16.75 29.9141 16.414 30.2498 16 30.25C15.5859 30.2498 15.25 29.9141 15.25 29.5V21.1445L11.8643 24.5303C11.5715 24.8231 11.0966 24.8228 10.8037 24.5303C10.5108 24.2374 10.5108 23.7626 10.8037 23.4697L15.4697 18.8027C15.6103 18.6623 15.8013 18.5831 16 18.583ZM27 15.25C27.4142 15.25 27.75 15.5858 27.75 16C27.75 16.4142 27.4142 16.75 27 16.75H5C4.58579 16.75 4.25 16.4142 4.25 16C4.25 15.5858 4.58579 15.25 5 15.25H27ZM16 1.75C16.4141 1.75018 16.75 2.0859 16.75 2.5V10.8555L20.1357 7.46973C20.4285 7.17695 20.9034 7.17718 21.1963 7.46973C21.4892 7.76262 21.4892 8.23738 21.1963 8.53027L16.5303 13.1973C16.3897 13.3377 16.1987 13.4169 16 13.417C15.8014 13.4169 15.6103 13.3376 15.4697 13.1973L10.8027 8.53027C10.5101 8.23743 10.5101 7.76257 10.8027 7.46973C11.0956 7.17689 11.5704 7.17702 11.8633 7.46973L15.25 10.8564V2.5C15.25 2.08591 15.586 1.7502 16 1.75Z"
    fill="currentColor"
  />
</svg>

<svg xmlns="http://www.w3.org/2000/svg" width="32" height="32" fill="none" data-fui-icon="true" viewBox="0 0 32 32"><path fill="currentColor" d="M16 18.583c.199 0 .39.08.53.22l4.667 4.667a.75.75 0 0 1-1.06 1.06l-3.387-3.386V29.5a.75.75 0 0 1-1.5 0v-8.355l-3.386 3.385a.75.75 0 0 1-1.06-1.06l4.666-4.667c.14-.14.331-.22.53-.22m11-3.333a.75.75 0 0 1 0 1.5H5a.75.75 0 0 1 0-1.5zM16 1.75a.75.75 0 0 1 .75.75v8.356l3.386-3.386a.75.75 0 0 1 1.06 1.06l-4.666 4.667a.75.75 0 0 1-1.06 0L10.803 8.53a.75.75 0 0 1 1.06-1.06l3.387 3.386V2.5a.75.75 0 0 1 .75-.75"/></svg>
